X: 1
T: The Bush On The Hill
R: jig
M: 6/8
L: 1/8
K: Amaj
|:~A,3 CEA | AEA cea | fed cdB | cAF FEF |
~A,3 CEA | AEA cea | fed cdB | cAG A2z :|
|: Ace aga | faf ecA | dfd cec | BAB cAF |
Ace aga | faf ecA | dfd cec | BAG A2z :||


Tune 1305	Setting 14619

